X: 18177
T: Humours Of Ennistymon, The
R: jig
M: 6/8
K: Gmajor
c|BGB BGB|AFA AFA|BGB BGB|def ged|
BGB BdB|AFA DFA|BdB cAF|AGG G2e||
fef fed|cAG FGA|Bdg gfg|afd d2e|
fag fed|cAG FGA|BdB cAF|AGG G2A||
BAB gdB|cBc ABc|BAB GBd|cAG FGA|
gfa gdB|cBc ABc|ded cAF|AGG G2||

